X:1
T:Zwölf Gesänge
T:Betteley der Vögel
T:5. Betteley der Vögel
T:Louise Reichardt
T:Aus des Knaben Wunderhorn (eds. von Arnim and Brentano)
T:Zwölf Gesänge, Op.3
T:OpenScore (CC0)
T:OpenScore (CC0)
C:Louise Reichardt
Z:Aus des Knaben Wunderhorn (eds. von Arnim and Brentano)
Z:OpenScore (CC0)
%%score 1 { 2 | 3 }
L:1/8
Q:1/4=120
M:2/4
K:G
V:1 treble nm="Voice"
V:2 treble nm="Piano"
V:3 bass 
V:1
"^Leicht und fröhlich" z4 |: z4 | z4 | z4 | z4 | z2 B c | d d d d | g d d d | e d c B | %9
w: |||||Es ist|kom- men es ist|kom- men der ge-|wünsch- te Früh- lings-|
 A2 A (B/^c/) | d d (d/e/) (f/g/) | a f d f | A A A (B/^c/) | d2 ((d/>e/)) (d/>e/) | d d d3/2 c/ | %15
w: both', so uns *|al- les Leid * be- *|nom- men und die|kal- te Win- ters *|Noth, wel- * cher *|gu- te Stun- den|
 c B d e/f/ | g d B G | G2{B} A2 |1 G2 z2 :|2 G2 z2 |] %20
w: brin- get, und ein *|gu- tes Jahr be-|din- *|get.||
V:2
 z2 z!p!!8va(! b'/>b'/ |:!p! g'3 b'/>b'/ | g'3 b'/>b'/ | g'/>b'/ d'/>b'/ b/>d'/ g/>b/ | %4
 d!8va)!"^loco"!f! [cf]2 [cf] | [Bg]2 z2 | [Bd]/G/[Bd]/G/ [Bd]/G/[Bd]/G/ | %7
 [Bd]/G/[Bd]/G/ [Bd]/G/[Bd]/G/ | e/G/ d/G/ c/G/ B/G/ | [FA]/D/[FA]/D/ [FA]/D/[FA]/D/ | %10
 [FA]/D/[FA]/D/ [FA]/D/[FA]/D/ | [FA]/D/[FA]/D/ [FA]/D/[FA]/D/ | [GA]/E/[GA]/E/ [GA]/E/[GA]/E/ | %13
 [FA]/D/[FA]/D/ [FA]/D/[FA]/D/ | [FA]/D/[FA]/D/ [Ac]/D/[Ac]/D/ | [GB]/D/[GB]/D/ [GB]/D/[GB]/D/ | %16
 [GB]/D/[GB]/D/ [GB]/D/[GB]/D/ | [GB]/D/[GB]/D/ [FA]/D/[FA]/D/ |1 G2 z b/>b/ :|2 G2 z2 |] %20
V:3
 [G,B,]/D/[G,B,]/D/ [G,B,]/D/[G,B,]/D/ |: [G,B,]/D/[G,B,]/D/ [G,B,]/D/[G,B,]/D/ | %2
 [G,B,]/D/[G,B,]/D/ [G,B,]/D/[G,B,]/D/ | [G,B,]/D/[G,B,]/D/ [G,B,]/D/[G,B,]/D/ | %4
 D, [D,A,C]2 [D,A,C] | [G,B,]2 z2 | G,2 z2 | G,2 z2 | CB, A,G, | D,2 z2 | D,2 z2 | D,2 z2 | %12
 A,2 z2 | D,2 =C2 | A,2 F,2 | G,2 G,2 | G,2 G,2 | D,2- D,2 |1 %18
 [G,B,]/D/[G,B,]/D/ [G,B,]/D/[G,B,]/D/ :|2 [G,B,D]2 z2 |] %20

